!!!!SEGMENT: pl-sa--55-a-i-55--007_wanski-jan--missa-solemnissima-benedictus.krn
!!!cenid: 18xx:345
!!!COM: Wański, Jan
!!!COM-rismid: pe30003295
!!!CDT: ~1800-1888/04
!!!CNT: Polish
!!!OTL: Missa Solemnissima – Benedictus
!!!PDT: 1830
!!!AGN: Sacred; Mass
!!!SMS-siglum: PL-SA
!!!SMS-shelfmark: 55/A I 55
!!!SMS-shelfwork: 001-007 M
!!!SMS-variant:
!!!SMS-altvar:
!!!NIFC-rismid: 1001035335
!!!URL-scan: http://bc.bdsandomierz.pl/dlibra/publication/1331/edition/1299/content
!!!ONB-nifc: UWAGA: części Mszy: Kyrie, Christe, Gloria, Credo, Sanctus, Pleni Sunt, Benedictus, Agnus Dei
**kern	**fba	**dynam	**kern	**kern	**dynam	**kern	**kern	**kern	**text	**kern	**kern	**kern
*part9	*	*part9	*part8	*part7	*part7	*part6	*part5	*part4	*part4	*part3	*part2	*part1
*staff9	*	*	*staff8	*staff7	*	*staff6	*staff5	*staff4	*staff4	*staff3	*staff2	*staff1
*I"Organo.	*	*	*I"Violino Secundo.	*I"Violino Primo.	*	*I"Baſso.	*I"Tenore.	*I"Alto.	*	*I"Canto.	*I"Corno Secundo in C.	*I"Corno Primo in C.
*I'Org.	*	*	*I'Violino Secundo	*I'Violino Primo	*	*I'B.	*I'T.	*I'A.	*	*I'C.	*I'Corno Secundo in C	*I'Corno Primo in C
*clefF4	*	*	*clefG2	*clefG2	*	*clefF4	*clefGv2	*clefC3	*	*clefG2	*clefG2	*clefG2
*	*	*	*	*	*	*	*	*	*	*	*Trd0c0	*Trd0c0
*k[b-]	*	*	*k[b-]	*k[b-]	*	*k[b-]	*k[b-]	*k[b-]	*	*k[b-]	*k[b-]	*k[b-]
*F:	*	*	*F:	*F:	*	*F:	*F:	*F:	*	*F:	*F:	*F:
*M2/4	*	*	*M2/4	*M2/4	*	*M2/4	*M2/4	*M2/4	*	*M2/4	*M2/4	*M2/4
=1	=1	=1	=1	=1	=1	=1	=1	=1	=1	=1	=1	=1
!LO:TX:a:t=P:problem:wszystkie caudy w dół z prawej strony	!	!	!	!	!	!	!	!	!	!	!	!
!LO:TX:a:i:t=Andante	!	!	!LO:TX:a:t=P:problem:wszystkie caudy w dół z prawej strony	!LO:TX:a:t=P:problem:wszystkie caudy w dół z prawej strony	!	!	!	!LO:TX:a:t=20.	!	!	!	!
!LO:TX:a:i:t=Solo	!	!	!LO:TX:i:a:t=Andante.	!LO:TX:a:i:t=Andante.	!	!LO:TX:b:i:t=Benedictus Tacet.	!LO:TX:b:i:t=Benedictus Tacet&colon;	!LO:TX:a:i:t=Andante	!	!LO:TX:b:i:t=Benedictus. Tacet.	!LO:TX:b:i:t=Benedictus Tacet.	!LO:TX:b:i:t=Benedictus Tacet.
!LO:TX:b:i:t=Benedictus	!	!	!	!	!	!	!	!	!	!	!	!
!LO:TX:b:t=P:problem:napis "Benedictus" na pięciolinii przed kluczem basowym	!	!	!LO:TX:b:t=P:problem:napis "Benedictus" na pięciolinii przed kluczem basowym	!LO:TX:b:t=P:problem:napis "Benedictus" na pięciolinii przed kluczem basowym	!	!	!	!	!	!	!	!
!	!	!	!	!	!	!	!	!LO:TX:b:t=P:problem:napis na pięciolinii przed kluczem	!	!	!	!
!	!	!	!	!LO:TX:b:i:t=Benedictus	!	!	!	!LO:TX:b:i:t=Benedictus	!	!	!	!
!	!	!	!LO:TX:b:i:t=Benedictus	!	!	!LO:TX:b:t=P:problem:napis na pięciolinii	!LO:TX:b:t=P:problem:napis na pięciolinii	!LO:N:vis=00	!	!LO:TX:b:t=P:problem:napis na pięciolinii	!LO:TX:b:t=P:problem:napis na pięciolinii	!LO:TX:b:t=P:problem:napis na pięciolinii
8F\L	.	.	4c/	4cc\	.	2ryy	2ryy	0r	.	2ryy	2ryy	2ryy
8A\	.	.	.	.	.	.	.	.	.	.	.	.
8B-\	X 6	.	16d/LL	16dd\LL	.	.	.	.	.	.	.	.
.	.	.	16e/	16ee\	.	.	.	.	.	.	.	.
8G\J	.	.	16f/	16ff\	.	.	.	.	.	.	.	.
.	.	.	16g/JJ	16gg\JJ	.	.	.	.	.	.	.	.
=2	=2	=2	=2	=2	=2	=2	=2	=2	=2	=2	=2	=2
!LO:TX:a:t=P:problem:mixed beam	!	!	!	!	!	!	!	!	!	!	!	!
8c\L	.	.	16f/LL	16ff\LL	.	2ryy	2ryy	.	.	2ryy	2ryy	2ryy
.	.	.	16e/JJ	16ee\JJ	.	.	.	.	.	.	.	.
8C/	.	.	4e/	4ee\	.	.	.	.	.	.	.	.
8c\	.	.	.	.	.	.	.	.	.	.	.	.
8B-\J	.	.	8d/	8dd\	.	.	.	.	.	.	.	.
=3	=3	=3	=3	=3	=3	=3	=3	=3	=3	=3	=3	=3
8A\L	X 6	.	16c/LL	16cc\LL	.	2ryy	2ryy	.	.	2ryy	2ryy	2ryy
.	.	.	16a/	16aa\	.	.	.	.	.	.	.	.
8F\	.	.	16e/	16ee\	.	.	.	.	.	.	.	.
.	.	.	16f/JJ	16ff\JJ	.	.	.	.	.	.	.	.
.	.	.	.	8qqcc/	.	.	.	.	.	.	.	.
8G\	X 7	.	4B-/	4b-\	.	.	.	.	.	.	.	.
8C\J	X 7	.	.	.	.	.	.	.	.	.	.	.
=4	=4	=4	=4	=4	=4	=4	=4	=4	=4	=4	=4	=4
8F\L	.	.	16A/LL	16a\LL	.	2ryy	2ryy	.	.	2ryy	2ryy	2ryy
.	.	.	16B-/JJ	16b-\JJ	.	.	.	.	.	.	.	.
16F\L	.	.	4c/	4cc\	.	.	.	.	.	.	.	.
16G\JJ	.	.	.	.	.	.	.	.	.	.	.	.
8A\L	X 6	.	.	.	.	.	.	.	.	.	.	.
8B-\J	.	.	8d/	8dd\	.	.	.	.	.	.	.	.
=5	=5	=5	=5	=5	=5	=5	=5	=5	=5	=5	=5	=5
!	!	!	!	!	!	!	!	!LO:N:vis=00	!	!	!	!
8A\L	X 6	.	16c/LL	16cc\LL	.	2ryy	2ryy	0r	.	2ryy	2ryy	2ryy
.	.	.	16a/	16aa\	.	.	.	.	.	.	.	.
8F\	.	.	16e/	16ee\	.	.	.	.	.	.	.	.
.	.	.	16f/JJ	16ff\JJ	.	.	.	.	.	.	.	.
.	.	.	8qqd/	8qqcc/	.	.	.	.	.	.	.	.
8G\	X 7	.	4B-/	4b-\	.	.	.	.	.	.	.	.
8C\J	X 7	.	.	.	.	.	.	.	.	.	.	.
=6	=6	=6	=6	=6	=6	=6	=6	=6	=6	=6	=6	=6
!LO:TX:a:t=P:problem:mixed beam	!	!	!	!	!	!	!	!	!	!	!	!
8FF/L	.	.	16A/LL	16a/LL	.	2ryy	2ryy	.	.	2ryy	2ryy	2ryy
.	.	.	16G/J	16g/J	.	.	.	.	.	.	.	.
8F\	.	.	8A/J	8f/J	.	.	.	.	.	.	.	.
8FF/J	.	.	8r	8r	.	.	.	.	.	.	.	.
!	!	!	!LO:TX:a:t=P:problem:wszystkie caudy w dół z prawej strony	!	!	!	!	!	!	!	!	!
8r	.	.	(>16a\LL	16aa\LL	.	.	.	.	.	.	.	.
.	.	.	16bn\JJ)	16bbn\JJ	.	.	.	.	.	.	.	.
!	!	!	!	!LO:PB:g=original	!	!	!	!	!	!	!	!
=7	=7	=7	=7	=7	=7	=7	=7	=7	=7	=7	=7	=7
8r	.	.	16cc\LL	16ccc\LL	.	2ryy	2ryy	.	.	2ryy	2ryy	2ryy
.	.	.	16g\J	16gg\J	.	.	.	.	.	.	.	.
8E\L	X 6	.	8g\J	8gg\J	.	.	.	.	.	.	.	.
8E\	X 6	.	16r	16r	.	.	.	.	.	.	.	.
.	.	.	16g/LL	16gg\LL	.	.	.	.	.	.	.	.
8D\J	X 6|	.	16a/	16aa\	.	.	.	.	.	.	.	.
.	.	.	16f/JJ	16ff\JJ	.	.	.	.	.	.	.	.
=8	=8	=8	=8	=8	=8	=8	=8	=8	=8	=8	=8	=8
8r	.	.	16f/LL	(>16ff\LL	.	2ryy	2ryy	.	.	2ryy	2ryy	2ryy
.	.	.	16e/J	16ee\J)	.	.	.	.	.	.	.	.
8C\L	.	.	8e/J	8ee\J	.	.	.	.	.	.	.	.
8C\	.	.	16r	16r	.	.	.	.	.	.	.	.
.	.	.	16e/LL	16ee\LL	.	.	.	.	.	.	.	.
8F\J	X 6	.	16d/	16dd\	.	.	.	.	.	.	.	.
.	.	.	16Bn/JJ	16bn\JJ	.	.	.	.	.	.	.	.
!LO:LB:g=original	!	!	!	!	!	!	!	!	!	!	!	!
=9	=9	=9	=9	=9	=9	=9	=9	=9	=9	=9	=9	=9
!LO:TX:a:t=P:problem:mixed beam	!	!	!	!	!	!	!	!	!	!	!	!
!	!	!	!	!	!	!	!	!LO:N:vis=00	!	!	!	!
8E\L	X 6	.	16c/LL	(>16cc\LL	.	2ryy	2ryy	0r	.	2ryy	2ryy	2ryy
.	.	.	16G/	16g\	.	.	.	.	.	.	.	.
8F\	X 6	.	16A/	16a\)	.	.	.	.	.	.	.	.
.	.	.	16f/JJ	16ff\JJ	.	.	.	.	.	.	.	.
!	!	!	!LO:LB:g=original	!	!	!	!	!	!	!	!	!
8G\	X 4	.	8e/L	8ee\L	.	.	.	.	.	.	.	.
8GG/J	X 3#	.	8d/J	8dd\J	.	.	.	.	.	.	.	.
=10	=10	=10	=10	=10	=10	=10	=10	=10	=10	=10	=10	=10
.	.	.	.	8qqdd/	.	.	.	.	.	.	.	.
8C/L	.	.	4c/	4cc\	.	2ryy	2ryy	.	.	2ryy	2ryy	2ryy
8CC/J	.	.	.	.	.	.	.	.	.	.	.	.
8r	.	.	(>16cc\LL	16ccc\LL	.	.	.	.	.	.	.	.
.	.	.	16b-X\	16bb-X\	.	.	.	.	.	.	.	.
8C/	X 6	.	16a\	16aa\	.	.	.	.	.	.	.	.
.	.	.	16g\JJ)	16gg\JJ	.	.	.	.	.	.	.	.
=11	=11	=11	=11	=11	=11	=11	=11	=11	=11	=11	=11	=11
8D/L	X #	.	16f#X/LL	(>16ff#X\LL	.	2ryy	2ryy	.	.	2ryy	2ryy	2ryy
.	.	.	16a/	16aa\	.	.	.	.	.	.	.	.
8GG/J	X 6	.	16g/	16gg\	.	.	.	.	.	.	.	.
.	.	.	16a/JJ	16aa\JJ)	.	.	.	.	.	.	.	.
8r	.	.	16b-/LL	16bb-\LL	.	.	.	.	.	.	.	.
.	.	.	16a/	16aa\	.	.	.	.	.	.	.	.
8BB-X/	.	.	16g/	16gg\	.	.	.	.	.	.	.	.
.	.	.	16fn/JJ	16ffn\JJ	.	.	.	.	.	.	.	.
=12	=12	=12	=12	=12	=12	=12	=12	=12	=12	=12	=12	=12
8C/L	X 6	.	16e/LL	(>16ee\LL	.	2ryy	2ryy	.	.	2ryy	2ryy	2ryy
.	.	.	16g/	16gg\	.	.	.	.	.	.	.	.
8FF/J	X 7	.	16f/	16ff\	.	.	.	.	.	.	.	.
.	.	.	16g/JJ	16gg\JJ)	.	.	.	.	.	.	.	.
8r	.	.	16a/LL	16aa\LL	.	.	.	.	.	.	.	.
.	.	.	16e/	16ee\	.	.	.	.	.	.	.	.
8AA/	X 6	.	16f/	16ff\	.	.	.	.	.	.	.	.
.	.	.	16c/JJ	16cc\JJ	.	.	.	.	.	.	.	.
=13	=13	=13	=13	=13	=13	=13	=13	=13	=13	=13	=13	=13
!	!	!	!	!	!	!	!	!LO:N:vis=00	!	!	!	!
4BB-/	.	.	16c#X/LL	16cc#X\LL	.	2ryy	2ryy	0r	.	2ryy	2ryy	2ryy
.	.	.	16d/	16dd\	.	.	.	.	.	.	.	.
.	.	.	16f#X/	16ff#X\	.	.	.	.	.	.	.	.
.	.	.	16g/JJ	16gg\JJ	.	.	.	.	.	.	.	.
!	!	!	!	!LO:LB:g=original	!	!	!	!	!	!	!	!
8GG/L	.	.	16a/LL	(>16aa\LL	.	.	.	.	.	.	.	.
.	.	.	16b-/	16bb-\)	.	.	.	.	.	.	.	.
8BB-/J	.	.	16d/	(>16dd\	.	.	.	.	.	.	.	.
.	.	.	16g/JJ	16gg\JJ)	.	.	.	.	.	.	.	.
=14	=14	=14	=14	=14	=14	=14	=14	=14	=14	=14	=14	=14
.	.	.	.	8qqff/	.	.	.	.	.	.	.	.
8C\L	.	.	4e/	4ee\	.	2ryy	2ryy	.	.	2ryy	2ryy	2ryy
16c\L	.	.	.	.	.	.	.	.	.	.	.	.
16B-\JJ	.	.	.	.	.	.	.	.	.	.	.	.
8A\L	.	.	8r	8r	.	.	.	.	.	.	.	.
8F\J	.	.	8c/	8cc\	.	.	.	.	.	.	.	.
=15	=15	=15	=15	=15	=15	=15	=15	=15	=15	=15	=15	=15
8B-\L	.	.	16d/LL	(>16dd\LL	.	2ryy	2ryy	.	.	2ryy	2ryy	2ryy
.	.	.	16e/	16ee\	.	.	.	.	.	.	.	.
8G\	.	.	16f/	16ff\	.	.	.	.	.	.	.	.
.	.	.	16g/JJ	16gg\JJ)	.	.	.	.	.	.	.	.
8c\	.	.	16f/LL	(>16ff\LL	.	.	.	.	.	.	.	.
.	.	.	16e/	16ee\	.	.	.	.	.	.	.	.
8B-\J	4 2	.	16d/	16dd\	.	.	.	.	.	.	.	.
.	.	.	16c/JJ	16cc\JJ)	.	.	.	.	.	.	.	.
=16	=16	=16	=16	=16	=16	=16	=16	=16	=16	=16	=16	=16
8A\L	6_ 3_	.	(<16f/LL	16ff\LL	.	2ryy	2ryy	.	.	2ryy	2ryy	2ryy
.	.	.	16a/JJ)	16aa\JJ	.	.	.	.	.	.	.	.
16A\L	.	.	4cc\	4ccc\	.	.	.	.	.	.	.	.
16G\JJ	.	.	.	.	.	.	.	.	.	.	.	.
16A\LL	.	.	.	.	.	.	.	.	.	.	.	.
16F\	.	.	.	.	.	.	.	.	.	.	.	.
16G\	.	.	8c/	8cc\	.	.	.	.	.	.	.	.
16A\JJ	.	.	.	.	.	.	.	.	.	.	.	.
=17	=17	=17	=17	=17	=17	=17	=17	=17	=17	=17	=17	=17
!	!	!	!	!	!	!	!	!LO:N:vis=00	!	!	!	!
8B-\L	x	.	16d/LL	(>16dd\LL	.	2ryy	2ryy	0r	.	2ryy	2ryy	2ryy
.	.	.	16e/	16ee\	.	.	.	.	.	.	.	.
8G\	.	.	16f/	16ff\	.	.	.	.	.	.	.	.
.	.	.	16g/JJ	16gg\JJ)	.	.	.	.	.	.	.	.
8c\	.	.	16f/LL	(>16ff\LL	.	.	.	.	.	.	.	.
.	.	.	16e/	16ee\	.	.	.	.	.	.	.	.
8B-\J	4 2	.	16d/	16dd\	.	.	.	.	.	.	.	.
.	.	.	16c/JJ	16cc\JJ)	.	.	.	.	.	.	.	.
=18	=18	=18	=18	=18	=18	=18	=18	=18	=18	=18	=18	=18
8A\L	6_ 3_	.	16f/LL	16ff\LL	.	2ryy	2ryy	.	.	2ryy	2ryy	2ryy
.	.	.	16a/JJ	16aa\JJ	.	.	.	.	.	.	.	.
16F\L	.	.	4cc\	4ccc\	.	.	.	.	.	.	.	.
16G\JJ	.	.	.	.	.	.	.	.	.	.	.	.
8A\L	.	.	.	.	.	.	.	.	.	.	.	.
8B-\J	.	.	8dd\	8ddd\	.	.	.	.	.	.	.	.
=19	=19	=19	=19	=19	=19	=19	=19	=19	=19	=19	=19	=19
!LO:TX:a:t=P:problem:mixed beam	!	!	!	!	!	!	!	!	!	!	!	!
8A\L	x	.	16cc\LL	(>16ccc\LL	.	2ryy	2ryy	.	.	2ryy	2ryy	2ryy
.	.	.	16a\	16aa\)	.	.	.	.	.	.	.	.
8B-\	.	.	16b-\	(>16bb-\	.	.	.	.	.	.	.	.
.	.	.	16g\JJ	16gg\JJ)	.	.	.	.	.	.	.	.
!	!	!	!LO:LB:g=original	!	!	!	!	!	!	!	!	!
8c\	X 4	.	16a/LL	(>16aa\LL	.	.	.	.	.	.	.	.
.	.	.	16f/	16ff\)	.	.	.	.	.	.	.	.
8C/J	X 3	.	16g/	(>16gg\	.	.	.	.	.	.	.	.
.	.	.	16e/JJ	16ee\JJ)	.	.	.	.	.	.	.	.
!LO:LB:g=original	!	!	!	!	!	!	!	!	!	!	!	!
=20	=20	=20	=20	=20	=20	=20	=20	=20	=20	=20	=20	=20
4F\	.	.	8f/L	8ff\L	.	2ryy	2ryy	.	.	2ryy	2ryy	2ryy
.	.	.	8c/J	8cc\J	.	.	.	.	.	.	.	.
4r	.	.	4f/	4f/	.	.	.	.	.	.	.	.
!	!	!	!LO:TX:a:t=P:problem:podwójna kreska	!LO:TX:a:t=P:problem:podwójna kreska	!	!	!	!	!	!	!	!
!	!	!	!	!LO:LB:g=original	!	!	!	!	!	!	!	!
=21	=21	=21	=21||	=21||	=21||	=21	=21	=21	=21	=21	=21	=21
!	!	!LO:DY:b:rj	!	!	!LO:HP:b:t=p.	!	!	!	!	!	!	!
!	!	!LO:HP:b:i:t=for.	!	!	!LO:DY:b:rj	!	!	!LO:TX:a:t=P:problem:wszystkie caudy w dół z prawej strony	!	!	!	!
8F\L	.	f	4c/	4cc\	p	2ryy	2ryy	4c\	Be-	2ryy	2ryy	2ryy
8A\	X 6	.	.	.	.	.	.	.	.	.	.	.
8B-\	.	.	16d/LL	(>16dd\LL	.	.	.	16d\LL	-ne-	.	.	.
.	.	.	16e/	16ee\	.	.	.	16e\	.	.	.	.
8G\J	.	.	16f/	16ff\	.	.	.	16f\	.	.	.	.
.	.	.	16g/JJ	16gg\JJ)	.	.	.	16g\JJ	.	.	.	.
=22	=22	=22	=22	=22	=22	=22	=22	=22	=22	=22	=22	=22
!LO:TX:a:t=P:problem:mixed beam	!	!	!	!	!	!	!	!	!	!	!	!
8c\L	.	.	(<16f/LL	(16ff\LL	.	2ryy	2ryy	16f\LL	-di-	2ryy	2ryy	2ryy
.	.	.	16e/JJ)	16ee\JJ)	.	.	.	16e\JJ	.	.	.	.
8C/	.	.	4e/	4ee\	.	.	.	4e\	-ctus	.	.	.
8c\	.	.	.	.	.	.	.	.	.	.	.	.
8B-\J	.	.	8d/	8dd\	.	.	.	8d\	qui	.	.	.
=23	=23	=23	=23	=23	=23	=23	=23	=23	=23	=23	=23	=23
8A\L	X 6	.	16c/LL	(>16cc\LL	.	2ryy	2ryy	16c\LL	ve-	2ryy	2ryy	2ryy
.	.	.	16a/	16aa\)	.	.	.	16a\	.	.	.	.
8F\	.	.	16e/	16ee'>\	.	.	.	16e\	-nit	.	.	.
.	.	.	16f/JJ	16ff'>\JJ	.	.	.	16f\JJ	.	.	.	.
.	.	.	.	8qqccc/	.	.	.	.	.	.	.	.
8G\	X 7	.	4b-\	4bb-\	.	.	.	4b-\	qui	.	.	.
8C\J	X 7	.	.	.	.	.	.	.	.	.	.	.
=24	=24	=24	=24	=24	=24	=24	=24	=24	=24	=24	=24	=24
8F\L	.	.	16a\LL	16aa\LL	.	2ryy	2ryy	16a\LL	ve-	2ryy	2ryy	2ryy
.	.	.	16b-\J	16bb-\J	.	.	.	16b-\JJ	.	.	.	.
16F\L	.	.	8cc\J	8ccc\J	.	.	.	8cc\	-nit	.	.	.
16G\JJ	.	.	.	.	.	.	.	.	.	.	.	.
8A\L	X 6	.	8r	8r	.	.	.	8r	.	.	.	.
8B-\J	.	.	8d/	8dd\	.	.	.	8d\	qui	.	.	.
=25	=25	=25	=25	=25	=25	=25	=25	=25	=25	=25	=25	=25
8A\L	X 6	.	16c/LL	16cc\LL	.	2ryy	2ryy	16c\LL	ve-	2ryy	2ryy	2ryy
.	.	.	16a/	16aa\	.	.	.	16a\	.	.	.	.
8F\	.	.	16e/	16ee\	.	.	.	16e\	.	.	.	.
.	.	.	16f/JJ	16ff\JJ	.	.	.	16f\JJ	.	.	.	.
.	.	.	8qqcc/	8qqccc/	.	.	.	.	.	.	.	.
8G\	X 7	.	4b-\	4bb-\	.	.	.	4b-\	.	.	.	.
8C\J	X 7	.	.	.	.	.	.	.	.	.	.	.
!	!	!	!	!	!	!	!	!LO:LB:g=original	!	!	!	!
=26	=26	=26	=26	=26	=26	=26	=26	=26	=26	=26	=26	=26
!LO:TX:a:t=P:problem:mixed beam	!	!	!	!	!	!	!	!	!	!	!	!
8FF/L	.	.	(16cc\LL	16aa\LL	.	2ryy	2ryy	16a\LL	.	2ryy	2ryy	2ryy
.	.	.	16b-\J)	16gg\J	.	.	.	16g\JJ	.	.	.	.
8F\	.	.	8a\J	8ff\J	.	.	.	8f\	-nit	.	.	.
8FF/J	.	.	8a\	8ff\	.	.	.	4r	.	.	.	.
8r	.	.	8r	8r	.	.	.	.	.	.	.	.
=27	=27	=27	=27	=27	=27	=27	=27	=27	=27	=27	=27	=27
8r	.	.	8r	8r	.	2ryy	2ryy	4a\	in	2ryy	2ryy	2ryy
8F\L	5 3	.	8cc\L	8aa\L	.	.	.	.	.	.	.	.
8F\	.	.	8cc\	8aa\	.	.	.	8a\L	.	.	.	.
8F\J	.	.	8cc\J	8aa\J	.	.	.	8bn\J	.	.	.	.
=28	=28	=28	=28	=28	=28	=28	=28	=28	=28	=28	=28	=28
8r	.	.	8r	8r	.	2ryy	2ryy	16cc\LL	.	2ryy	2ryy	2ryy
.	.	.	.	.	.	.	.	16g\JJ	No-	.	.	.
8E\L	X 6	.	8cc\L	8gg\L	.	.	.	8g\	-mine	.	.	.
8E\	.	.	8cc\	8gg\	.	.	.	8r	.	.	.	.
8E\J	.	.	8cc\J	8gg\J	.	.	.	8g\	in	.	.	.
=29	=29	=29	=29	=29	=29	=29	=29	=29	=29	=29	=29	=29
8r	.	.	8r	8r	.	2ryy	2ryy	8g\L	No-	2ryy	2ryy	2ryy
8D\L	7_ 3_	.	8a\L	8gg\L	.	.	.	16f\L	-mi-	.	.	.
.	.	.	.	.	.	.	.	16e\JJ	-ne	.	.	.
8D\	.	.	8a\	8ff\	.	.	.	8.f\L	Do-	.	.	.
8D\J	X 6	.	8bn\J	8ff\J	.	.	.	.	.	.	.	.
.	.	.	.	.	.	.	.	16f\Jk	-mi-	.	.	.
!	!	!	!	!LO:LB:g=original	!	!	!	!	!	!	!	!
=30	=30	=30	=30	=30	=30	=30	=30	=30	=30	=30	=30	=30
.	.	.	.	.	.	.	.	8qqf/	.	.	.	.
!	!	!	!	!LO:TX:t=P:problem:złe renderowanie	!	!	!	!	!	!	!	!
!	!	!	!	!	!LO:HP:b:t=for.	!	!	!	!	!	!	!
!LO:TX:a:t=P:problem:mixed beam	!	!	!LO:DY:b:rj	!	!	!	!	!	!	!	!	!
8C/L	.	.	8g/L	8ee\L	f	2ryy	2ryy	4e\	-ni	2ryy	2ryy	2ryy
8c\	.	.	32e/LL	(>32cc\LL	.	.	.	.	.	.	.	.
.	.	.	32d/	32bn\	.	.	.	.	.	.	.	.
.	.	.	32e/	32cc\	.	.	.	.	.	.	.	.
.	.	.	32f/JJJ	32dd\JJJ)	.	.	.	.	.	.	.	.
8C/J	.	.	8e/	8cc\	.	.	.	8r	.	.	.	.
8r	.	.	8r	8r	.	.	.	8e\	in	.	.	.
=31	=31	=31	=31	=31	=31	=31	=31	=31	=31	=31	=31	=31
4F\	X 6	.	16c#X/LL	(>16cc#X\LL	.	2ryy	2ryy	16c#X\LL	No-	2ryy	2ryy	2ryy
.	.	.	16d/	16dd\	.	.	.	16d\	.	.	.	.
.	.	.	16e/	16ee\	.	.	.	16e\	.	.	.	.
.	.	.	16f/JJ	16ff\JJ)	.	.	.	16f\JJ	.	.	.	.
!	!	!	!LO:LB:g=original	!	!	!	!	!	!	!	!	!
8r	.	.	16g/LL	(>16gg\LL	.	.	.	16g\LL	-mi-	.	.	.
.	.	.	16a/	16aa\	.	.	.	16a\	.	.	.	.
!	!	!	!LO:SIC:s=16bn	!	!	!	!	!	!	!	!	!
8F#X\	5 3	.	16b-/	16bbn\	.	.	.	16bn\	-ne	.	.	.
.	.	.	16cc/JJ	16cccn\JJ)	.	.	.	16cc\JJ	.	.	.	.
!LO:LB:g=original	!	!	!	!	!	!	!	!	!	!	!	!
=32	=32	=32	=32	=32	=32	=32	=32	=32	=32	=32	=32	=32
!LO:TX:a:t=P:problem:niejednoznaczny zapis w bc. Przyjęto "4"	!	!	!	!	!	!	!	!	!	!	!	!
8G\L	X 4	.	8e/L	8ee\L	.	2ryy	2ryy	16e\LL	Do-	2ryy	2ryy	2ryy
.	.	.	.	.	.	.	.	16d\J	-mi-	.	.	.
16G\L	X n	.	8d/J	8dd\J	.	.	.	8d\J	-ne	.	.	.
16A\JJ	.	.	.	.	.	.	.	.	.	.	.	.
8G\L	.	.	4r	4r	.	.	.	4r	.	.	.	.
8F\J	.	.	.	.	.	.	.	.	.	.	.	.
=33	=33	=33	=33	=33	=33	=33	=33	=33	=33	=33	=33	=33
8E\L	X 6	.	4g/	4ee\	.	2ryy	2ryy	8c\L	Be-	2ryy	2ryy	2ryy
8C\J	.	.	.	.	.	.	.	8cc\	.	.	.	.
8r	.	.	4r	4r	.	.	.	8bn\	.	.	.	.
8c\	X 6	.	.	.	.	.	.	8a\J	.	.	.	.
!	!	!	!	!	!	!	!	!LO:LB:g=original	!	!	!	!
=34	=34	=34	=34	=34	=34	=34	=34	=34	=34	=34	=34	=34
8Bn\L	.	.	8cc\L	8.gg\L	.	2ryy	2ryy	8.g\L	-ne-	2ryy	2ryy	2ryy
8G\	.	.	8bn\	.	.	.	.	.	.	.	.	.
.	.	.	.	(>32ff\LL	.	.	.	32f\LL	.	.	.	.
.	.	.	.	32ee\JJJ)	.	.	.	32e\JJJ	.	.	.	.
8A\	X 6	.	8cc\	4ffT>\	.	.	.	4f\	-di-	.	.	.
8B\J	.	.	8dd\J	.	.	.	.	.	.	.	.	.
=35	=35	=35	=35	=35	=35	=35	=35	=35	=35	=35	=35	=35
4c\	.	.	4g/	4ee\	.	2ryy	2ryy	8e\L	-ctus	2ryy	2ryy	2ryy
.	.	.	.	.	.	.	.	8cc\J	qui	.	.	.
*	*	*	*	*	*	*	*	*Xtuplet	*	*	*	*
8r	.	.	4r	4r	.	.	.	24bn\LL	ve-	.	.	.
.	.	.	.	.	.	.	.	24cc\	.	.	.	.
.	.	.	.	.	.	.	.	24b\JJ	.	.	.	.
8c\	X 6	.	.	.	.	.	.	24a\LL	-nit	.	.	.
.	.	.	.	.	.	.	.	24b\	.	.	.	.
.	.	.	.	.	.	.	.	24a\JJ	.	.	.	.
=36	=36	=36	=36	=36	=36	=36	=36	=36	=36	=36	=36	=36
8Bn\L	.	.	8cc\L	8gg\L	.	2ryy	2ryy	8g\L	in	2ryy	2ryy	2ryy
8G\	.	.	8bn\	16aa\L	.	.	.	16a\L	.	.	.	.
.	.	.	.	16ee\JJ	.	.	.	16e\JJ	.	.	.	.
8A\	X 6	.	8cc\	4ffT>\	.	.	.	4fT>\	No-	.	.	.
8B\J	.	.	8dd\J	.	.	.	.	.	.	.	.	.
=37	=37	=37	=37	=37	=37	=37	=37	=37	=37	=37	=37	=37
!LO:TX:a:t=P:problem:mixed beam	!	!	!	!	!	!	!	!	!	!	!	!
8c\L	.	.	8cc\L	8ee\L	.	2ryy	2ryy	16e\LL	.	2ryy	2ryy	2ryy
.	.	.	.	.	.	.	.	16f\J	.	.	.	.
8C/	.	.	8ee\	8gg\	.	.	.	8g\J	.	.	.	.
8C/	.	.	8ee\	8gg\	.	.	.	16r	.	.	.	.
.	.	.	.	.	.	.	.	16e\LL	.	.	.	.
8C/J	.	.	8ee\J	8gg\J	.	.	.	16f\	.	.	.	.
.	.	.	.	.	.	.	.	16g\JJ	.	.	.	.
=38	=38	=38	=38	=38	=38	=38	=38	=38	=38	=38	=38	=38
8r	.	.	8r	8r	.	2ryy	2ryy	16f\LL	.	2ryy	2ryy	2ryy
.	.	.	.	.	.	.	.	16g\J	.	.	.	.
8C/L	.	.	8ff\L	8aa\L	.	.	.	8a\J	.	.	.	.
8C/	6 4	.	8ff\	8aa\	.	.	.	16r	.	.	.	.
.	.	.	.	.	.	.	.	16f\LL	.	.	.	.
8C/J	.	.	8ff\J	8aa\J	.	.	.	16g\	.	.	.	.
.	.	.	.	.	.	.	.	16a\JJ	.	.	.	.
!	!	!	!	!LO:LB:g=original	!	!	!	!	!	!	!	!
=39	=39	=39	=39	=39	=39	=39	=39	=39	=39	=39	=39	=39
8r	.	.	8r	8r	.	2ryy	2ryy	16g\LL	.	2ryy	2ryy	2ryy
.	.	.	.	.	.	.	.	16a\J	.	.	.	.
8C/L	-7 5	.	8gg\L	8bb-X\L	.	.	.	8b-X\J	.	.	.	.
8C/	.	.	8gg\	8bb-\	.	.	.	16r	.	.	.	.
.	.	.	.	.	.	.	.	16g\LL	.	.	.	.
8C/J	.	.	8gg\J	8bb-\J	.	.	.	16a\	.	.	.	.
.	.	.	.	.	.	.	.	16b-\JJ	.	.	.	.
=40	=40	=40	=40	=40	=40	=40	=40	=40	=40	=40	=40	=40
4F\	.	.	4cc\	8aa\L	.	2ryy	2ryy	8a\L	.	2ryy	2ryy	2ryy
.	.	.	.	16.bbn\L	.	.	.	16bn\L	.	.	.	.
.	.	.	.	.	.	.	.	32a\L	.	.	.	.
!	!	!	!	!LO:N:vis=32	!	!	!	!	!	!	!	!
.	.	.	.	64aa\LL	.	.	.	32b\JJJ	.	.	.	.
!	!	!	!	!LO:N:vis=32	!	!	!	!	!	!	!	!
.	.	.	.	64bb\JJJJ	.	.	.	.	.	.	.	.
8E\L	X 6	.	8cc\L	8ccc\L	.	.	.	8cc\	-mi-	.	.	.
8F\J	.	.	8cc\J	16bb\L	.	.	.	16b\	-ne	.	.	.
.	.	.	.	16aa\JJ	.	.	.	16a\	.	.	.	.
!	!	!	!	!	!	!	!	!LO:PB:g=original	!	!	!	!
=41	=41	=41	=41	=41	=41	=41	=41	=41	=41	=41	=41	=41
!LO:TX:a:t=P:problem:mixed beam	!	!	!	!	!	!	!	!	!	!	!	!
8E\L	.	.	8cc\L	8gg'>\L	.	2ryy	2ryy	16g\LL	Do-	2ryy	2ryy	2ryy
.	.	.	.	.	.	.	.	16e\	.	.	.	.
8F\	.	.	8a\	8ff'>\	.	.	.	16f\	.	.	.	.
.	.	.	.	.	.	.	.	16d\JJ	.	.	.	.
8G\	X 4	.	8g\	8ee'>\	.	.	.	16e\LL	-mi-	.	.	.
.	.	.	.	.	.	.	.	16c\	.	.	.	.
8GG/J	X n	.	8g\J	8dd'>\J	.	.	.	16d\	.	.	.	.
.	.	.	.	.	.	.	.	16Bn\JJ	.	.	.	.
=42	=42	=42	=42	=42	=42	=42	=42	=42	=42	=42	=42	=42
!	!	!	!	!	!LO:HP:b:t=for.	!	!	!	!	!	!	!
!	!	!	!	!	!LO:DY:b:rj	!	!	!	!	!	!	!
8C\L	.	.	4g/	4gg\	f	2ryy	2ryy	4c\	-ni	2ryy	2ryy	2ryy
8E\	.	.	.	.	.	.	.	.	.	.	.	.
8F\	X 6	.	(>16a\LL	(>16aa\LL	.	.	.	4r	.	.	.	.
.	.	.	16bn\	16bbn\	.	.	.	.	.	.	.	.
8D\J	.	.	16cc\	16ccc\	.	.	.	.	.	.	.	.
.	.	.	16dd\JJ)	16ddd\JJ)	.	.	.	.	.	.	.	.
=43	=43	=43	=43	=43	=43	=43	=43	=43	=43	=43	=43	=43
!LO:TX:a:t=P:problem:mixed beam	!	!	!	!	!	!	!	!LO:TX:a:t=11.	!	!	!	!
!	!	!	!	!	!	!	!	!LO:N:vis=00	!	!	!	!
8G\L	X 4	.	16cc\LL	16ccc\LL	.	2ryy	2ryy	0r	.	2ryy	2ryy	2ryy
!	!	!	!	!LO:SIC:s=16bbn	!	!	!	!	!	!	!	!
.	.	.	16bn\JJ	16bb-\JJ	.	.	.	.	.	.	.	.
!	!	!	!	!LO:SIC:s=4bbn	!	!	!	!	!	!	!	!
8GG/	.	.	4b\	4bb-\	.	.	.	.	.	.	.	.
8G\	X n_	.	.	.	.	.	.	.	.	.	.	.
8F\J	.	.	8a\	8aa\	.	.	.	.	.	.	.	.
!LO:LB:g=original	!	!	!	!	!	!	!	!	!	!	!	!
=44	=44	=44	=44	=44	=44	=44	=44	=44	=44	=44	=44	=44
8E\L	X 6	.	16g/LL	(>16gg\LL	.	2ryy	2ryy	.	.	2ryy	2ryy	2ryy
.	.	.	16cc/	16ccc\	.	.	.	.	.	.	.	.
8C\	.	.	16e/	16ee\)	.	.	.	.	.	.	.	.
.	.	.	16g/JJ	16gg\JJ	.	.	.	.	.	.	.	.
.	.	.	8qqa/	8qqgg/	.	.	.	.	.	.	.	.
8D\	X 7	.	4f/	4ffT>\	.	.	.	.	.	.	.	.
8GG\J	.	.	.	.	.	.	.	.	.	.	.	.
=45	=45	=45	=45	=45	=45	=45	=45	=45	=45	=45	=45	=45
8C/L	7 n3	.	16e/LL	(16ee\LL	.	2ryy	2ryy	.	.	2ryy	2ryy	2ryy
.	.	.	16f/JJ	16ff\JJ)	.	.	.	.	.	.	.	.
16C/L	.	.	4g/	4gg\	.	.	.	.	.	.	.	.
16D/JJ	.	.	.	.	.	.	.	.	.	.	.	.
8E\L	X 6	.	.	.	.	.	.	.	.	.	.	.
8F\J	.	.	8a/	8aa\	.	.	.	.	.	.	.	.
!	!	!	!LO:LB:g=original	!	!	!	!	!	!	!	!	!
=46	=46	=46	=46	=46	=46	=46	=46	=46	=46	=46	=46	=46
8E\L	.	.	16g/LL	(>16gg\LL	.	2ryy	2ryy	.	.	2ryy	2ryy	2ryy
.	.	.	16cc/	16ccc\)	.	.	.	.	.	.	.	.
8C\	.	.	16e/	16ee\	.	.	.	.	.	.	.	.
.	.	.	16g/JJ	16gg\JJ	.	.	.	.	.	.	.	.
.	.	.	8qqg/	8qqgg/	.	.	.	.	.	.	.	.
8E\	X 7	.	4f/	4ffT>\	.	.	.	.	.	.	.	.
8GG\J	7 n	.	.	.	.	.	.	.	.	.	.	.
=47	=47	=47	=47	=47	=47	=47	=47	=47	=47	=47	=47	=47
!LO:TX:a:t=P:problem:mixed beam	!	!	!	!	!	!	!	!	!	!	!	!
!	!	!	!	!	!	!	!	!LO:N:vis=00	!	!	!	!
8C/L	.	.	16e/LL	(>16ee\LL	.	2ryy	2ryy	0r	.	2ryy	2ryy	2ryy
.	.	.	16d/J	16dd\J)	.	.	.	.	.	.	.	.
8c\	.	.	8c/J	8cc\J	.	.	.	.	.	.	.	.
!	!	!	!	!LO:LB:g=original	!	!	!	!	!	!	!	!
8C/J	.	.	8r	8r	.	.	.	.	.	.	.	.
8r	.	.	16e/LL	16ee\LL	.	.	.	.	.	.	.	.
.	.	.	16f#X/JJ	16ff#X\JJ	.	.	.	.	.	.	.	.
=48	=48	=48	=48	=48	=48	=48	=48	=48	=48	=48	=48	=48
8r	.	.	16g/LL	(>16gg\LL	.	2ryy	2ryy	.	.	2ryy	2ryy	2ryy
.	.	.	16d/J	16dd\J)	.	.	.	.	.	.	.	.
8Bn\L	X 6	.	8d/J	8dd\J	.	.	.	.	.	.	.	.
8B\	.	.	16r	16r	.	.	.	.	.	.	.	.
.	.	.	16d/LL	(>16dd\LL	.	.	.	.	.	.	.	.
8A\J	X 3	.	16e/	16ee\	.	.	.	.	.	.	.	.
.	.	.	16c/JJ	16cc\JJ)	.	.	.	.	.	.	.	.
=49	=49	=49	=49	=49	=49	=49	=49	=49	=49	=49	=49	=49
8r	.	.	16c/LL	(>16cc\LL	.	2ryy	2ryy	.	.	2ryy	2ryy	2ryy
.	.	.	16Bn/J	16bn\J)	.	.	.	.	.	.	.	.
8G\L	X 6	.	8B/J	8b\J	.	.	.	.	.	.	.	.
8G\	.	.	16r	16r	.	.	.	.	.	.	.	.
.	.	.	16bn\LL	16bbn\LL	.	.	.	.	.	.	.	.
8F\J	X 3	.	16cc\	16ccc\	.	.	.	.	.	.	.	.
.	.	.	16a\JJ	16aa\JJ	.	.	.	.	.	.	.	.
=50	=50	=50	=50	=50	=50	=50	=50	=50	=50	=50	=50	=50
8r	.	.	16a/LL	(>16aa\LL	.	2ryy	2ryy	.	.	2ryy	2ryy	2ryy
.	.	.	16g/J	16gg\J)	.	.	.	.	.	.	.	.
8E\L	X 6	.	8g/J	8gg\J	.	.	.	.	.	.	.	.
8E\	.	.	16r	16r	.	.	.	.	.	.	.	.
.	.	.	16g/LL	16gg\LL	.	.	.	.	.	.	.	.
8D\J	X 6|	.	16a/	16aa\	.	.	.	.	.	.	.	.
.	.	.	16f/JJ	16ff\JJ	.	.	.	.	.	.	.	.
=51	=51	=51	=51	=51	=51	=51	=51	=51	=51	=51	=51	=51
!	!	!	!	!	!	!	!	!LO:N:vis=0	!	!	!	!
8r	.	.	16f/LL	(>16ff\LL	.	2ryy	2ryy	1r	.	2ryy	2ryy	2ryy
.	.	.	16e/J	16ee\J)	.	.	.	.	.	.	.	.
8C\L	.	.	8e/J	8ee\J	.	.	.	.	.	.	.	.
8C\	.	.	16r	16r	.	.	.	.	.	.	.	.
.	.	.	16e/LL	(>16ee\LL	.	.	.	.	.	.	.	.
8F\J	n4 2	.	16d/	16dd\	.	.	.	.	.	.	.	.
.	.	.	16Bn/JJ	16bn\JJ)	.	.	.	.	.	.	.	.
=52	=52	=52	=52	=52	=52	=52	=52	=52	=52	=52	=52	=52
!LO:TX:a:t=P:problem:mixed beam	!	!	!	!	!	!	!	!	!	!	!	!
8E\L	X 6	.	16c/LL	(>16cc\LL	.	2ryy	2ryy	.	.	2ryy	2ryy	2ryy
.	.	.	16G/	16g\	.	.	.	.	.	.	.	.
8F\	.	.	16A/	16a\	.	.	.	.	.	.	.	.
.	.	.	16f/JJ	16ff\JJ)	.	.	.	.	.	.	.	.
8G\	X 4	.	8e/L	8ee\L	.	.	.	.	.	.	.	.
.	n 3	.	.	.	.	.	.	.	.	.	.	.
8GG/J	.	.	8d/J	8ddT>\J	.	.	.	.	.	.	.	.
=53	=53	=53	=53	=53	=53	=53	=53	=53	=53	=53	=53	=53
4C/	.	.	8c/L	8cc\L	.	2ryy	2ryy	2r	.	2ryy	2ryy	2ryy
.	.	.	8G/J	8g\J	.	.	.	.	.	.	.	.
4r	.	.	4c/	4c/	.	.	.	.	.	.	.	.
!	!	!	!	!LO:LB:g=original	!	!	!	!	!	!	!	!
=54	=54	=54	=54	=54	=54	=54	=54	=54	=54	=54	=54	=54
!	!	!	!	!	!LO:HP:b:t=p.	!	!	!	!	!	!	!
!	!	!	!	!	!LO:DY:b	!	!	!	!	!	!	!
8C\L	.	.	4g/	4gg\	p	2ryy	2ryy	4g\	Be-	2ryy	2ryy	2ryy
8E\	X 6	.	.	.	.	.	.	.	.	.	.	.
8F\	.	.	16a\LL	(>16aa\LL	.	.	.	16a\LL	-ne-	.	.	.
.	.	.	16bn\	16bbn\	.	.	.	16bn\	.	.	.	.
8D\J	.	.	16cc\	16ccc\	.	.	.	16cc\	.	.	.	.
.	.	.	16dd\JJ	16ddd\JJ)	.	.	.	16dd\JJ	.	.	.	.
=55	=55	=55	=55	=55	=55	=55	=55	=55	=55	=55	=55	=55
!LO:TX:a:t=P:problem:mixed beam	!	!	!	!	!	!	!	!	!	!	!	!
8GG/L	.	.	(>16cc\LL	16ccc\LL	.	2ryy	2ryy	16cc\LL	-di-	2ryy	2ryy	2ryy
!	!	!	!	!LO:SIC:s=16bbn	!	!	!	!	!	!	!	!
.	.	.	16bn\JJ)	16bb-\JJ	.	.	.	16b-\JJ	.	.	.	.
!	!	!	!	!LO:SIC:s=4bbn	!	!	!	!	!	!	!	!
8G\	.	.	4b\	4bb-\	.	.	.	4b-\	-ctus	.	.	.
8G\	.	.	.	.	.	.	.	.	.	.	.	.
8F\J	.	.	8a\	8aa\	.	.	.	8a\	qui	.	.	.
!	!	!	!LO:LB:g=original	!	!	!	!	!	!	!	!	!
=56	=56	=56	=56	=56	=56	=56	=56	=56	=56	=56	=56	=56
8E\L	X 6_	.	16g/LL	16gg\LL	.	2ryy	2ryy	16g\LL	ve-	2ryy	2ryy	2ryy
.	.	.	16cc/	16ccc\	.	.	.	16cc\	.	.	.	.
8C\	.	.	16e/	16ee\	.	.	.	16e\	-nit	.	.	.
.	.	.	16g/JJ	16gg\JJ	.	.	.	16g\JJ	.	.	.	.
8D\	X 7_	.	8g/L	8gg\L	.	.	.	8g\L	.	.	.	.
8GG\J	.	.	8f/J	8ff\J	.	.	.	8f\J	.	.	.	.
!LO:LB:g=original	!	!	!	!	!	!	!	!	!	!	!	!
=57	=57	=57	=57	=57	=57	=57	=57	=57	=57	=57	=57	=57
8C/L	x	.	16e/LL	(>16ee\LL	.	2ryy	2ryy	16e\LL	in	2ryy	2ryy	2ryy
.	.	.	16f/J	16ff\J	.	.	.	16f\J	.	.	.	.
16C/L	.	.	8g/J	8gg\J)	.	.	.	8g\J	.	.	.	.
16D/JJ	.	.	.	.	.	.	.	.	.	.	.	.
8E\L	X 6	.	8r	8r	.	.	.	8r	.	.	.	.
8F\J	.	.	8a/	8aa\	.	.	.	8a\	No-	.	.	.
=58	=58	=58	=58	=58	=58	=58	=58	=58	=58	=58	=58	=58
8E\L	X 6	.	16g/LL	16gg\LL	.	2ryy	2ryy	16g\LL	-mi-	2ryy	2ryy	2ryy
.	.	.	16cc/	16ccc\	.	.	.	16cc\	.	.	.	.
8C\	.	.	16e/	16ee\	.	.	.	16e\	.	.	.	.
.	.	.	16g/JJ	16gg\JJ	.	.	.	16g\JJ	.	.	.	.
8D\	X 7	.	8g/L	8gg\L	.	.	.	8g\L	.	.	.	.
8G\J	7 n	.	8f/J	8ff\J	.	.	.	8f\J	.	.	.	.
!	!	!	!	!	!	!	!	!LO:LB:g=original	!	!	!	!
=59	=59	=59	=59	=59	=59	=59	=59	=59	=59	=59	=59	=59
!LO:TX:a:t=P:problem:mixed beam	!	!	!	!	!	!	!	!	!	!	!	!
8C/L	.	.	8e/L	16ee\LL	.	2ryy	2ryy	16e\LL	-ne	2ryy	2ryy	2ryy
.	.	.	.	16dd\J	.	.	.	16d\J	.	.	.	.
8c\	.	.	8e/	8cc\J	.	.	.	8c\J	.	.	.	.
8C/J	.	.	8e/J	8cc\	.	.	.	8r	.	.	.	.
8r	.	.	8r	8r	.	.	.	8f\	Do-	.	.	.
=60	=60	=60	=60	=60	=60	=60	=60	=60	=60	=60	=60	=60
8r	.	.	8r	8r	.	2ryy	2ryy	8.cc\L	-mi-	2ryy	2ryy	2ryy
8C/L	X -	.	8cc\L	8ee-X\L	.	.	.	.	.	.	.	.
.	.	.	.	.	.	.	.	16bn\Jk	.	.	.	.
8C/	X 6	.	8cc\	8ee-\	.	.	.	8.a\L	-ni	.	.	.
8C/J	.	.	8cc\J	8ee-\J	.	.	.	.	.	.	.	.
.	.	.	.	.	.	.	.	16g\Jk	.	.	.	.
=61	=61	=61	=61	=61	=61	=61	=61	=61	=61	=61	=61	=61
8r	.	.	8r	8r	.	2ryy	2ryy	16f#X\LL	in	2ryy	2ryy	2ryy
.	.	.	.	.	.	.	.	16g\J	.	.	.	.
8D\L	X #_	.	8f#X/L	8dd\L	.	.	.	8a\J	.	.	.	.
8D\	.	.	8f#/	8dd\	.	.	.	16r	.	.	.	.
.	.	.	.	.	.	.	.	16d\LL	No-	.	.	.
8D\J	.	.	8f#/J	8dd\J	.	.	.	16f#\	.	.	.	.
.	x	.	.	.	.	.	.	16a\JJ	.	.	.	.
!	!	!	!	!LO:LB:g=original	!	!	!	!	!	!	!	!
=62	=62	=62	=62	=62	=62	=62	=62	=62	=62	=62	=62	=62
8r	.	.	8r	8r	.	2ryy	2ryy	16g\LL	-mi-	2ryy	2ryy	2ryy
.	.	.	.	.	.	.	.	16a\J	.	.	.	.
8BB-X/L	X 6_	.	8g/L	8dd\L	.	.	.	8b-X\J	.	.	.	.
8BB-/	.	.	8g/	8dd\	.	.	.	16r	.	.	.	.
.	.	.	.	.	.	.	.	16d\LL	-ne	.	.	.
8BB-/J	.	.	8g/J	8dd\J	.	.	.	16g\	.	.	.	.
.	x	.	.	.	.	.	.	16b-\JJ	.	.	.	.
=63	=63	=63	=63	=63	=63	=63	=63	=63	=63	=63	=63	=63
8r	.	.	8r	8r	.	2ryy	2ryy	16a\LL	in	2ryy	2ryy	2ryy
.	.	.	.	.	.	.	.	16b-\J	.	.	.	.
8F#X\L	X 6_	.	8d/L	8cc\L	.	.	.	8cc\J	.	.	.	.
8F#\	.	.	8d/	8cc\	.	.	.	16r	.	.	.	.
.	.	.	.	.	.	.	.	16d\LL	Nomi-	.	.	.
8F#\J	X 5	.	8d/J	8cc\J	.	.	.	16a\	.	.	.	.
.	.	.	.	.	.	.	.	16cc\JJ	.	.	.	.
=64	=64	=64	=64	=64	=64	=64	=64	=64	=64	=64	=64	=64
8r	.	.	16d/LL	16b-X/LL	.	2ryy	2ryy	16b-\LL	.	2ryy	2ryy	2ryy
.	.	.	16c/J	16a/J	.	.	.	16a\J	.	.	.	.
!LO:TX:a:t=P:problem:mixed beam	!	!	!	!	!	!	!	!	!	!	!	!
8G\L	X -	.	8Bn/J	8g/J	.	.	.	8g\J	.	.	.	.
8GG/J	.	.	8B/	8g/	.	.	.	8r	.	.	.	.
8r	.	.	8r	8r	.	.	.	8g\	-ne	.	.	.
=65	=65	=65	=65	=65	=65	=65	=65	=65	=65	=65	=65	=65
8r	.	.	8r	8r	.	2ryy	2ryy	8.b-\L	Do-	2ryy	2ryy	2ryy
8BB-/L	X 6	.	8g/L	8dd\L	.	.	.	.	.	.	.	.
.	.	.	.	.	.	.	.	16a\Jk	.	.	.	.
8BB-/	.	.	8g/	8dd\	.	.	.	8.g\L	-mi-	.	.	.
8BB-/J	.	.	8g/J	8dd\J	.	.	.	.	.	.	.	.
.	.	.	.	.	.	.	.	16fn\Jk	.	.	.	.
=66	=66	=66	=66	=66	=66	=66	=66	=66	=66	=66	=66	=66
8r	.	.	8r	8r	.	2ryy	2ryy	16e\LL	-ni	2ryy	2ryy	2ryy
.	.	.	.	.	.	.	.	16f\J	.	.	.	.
8C/L	5 3	.	8e/L	8cc\L	.	.	.	8g\J	.	.	.	.
!	!	!	!	!	!	!	!	!LO:LB:g=original	!	!	!	!
8C/	.	.	8e/	8cc\	.	.	.	16r	.	.	.	.
.	.	.	.	.	.	.	.	16c\LL	in	.	.	.
8C/J	.	.	8e/J	8cc\J	.	.	.	16e\	.	.	.	.
.	.	.	.	.	.	.	.	16g\JJ	.	.	.	.
=67	=67	=67	=67	=67	=67	=67	=67	=67	=67	=67	=67	=67
8r	.	.	8r	8r	.	2ryy	2ryy	16f\LL	No-	2ryy	2ryy	2ryy
.	.	.	.	.	.	.	.	16g\J	.	.	.	.
8AA/L	.	.	8f/L	8cc\L	.	.	.	8a\J	.	.	.	.
8AA/	X 6	.	8f/	8cc\	.	.	.	16r	.	.	.	.
.	.	.	.	.	.	.	.	16c\LL	-mi-	.	.	.
8AA/J	.	.	8f/J	8cc\J	.	.	.	16f\	.	.	.	.
.	.	.	.	.	.	.	.	16a\JJ	.	.	.	.
=68	=68	=68	=68	=68	=68	=68	=68	=68	=68	=68	=68	=68
8r	.	.	8r	8r	.	2ryy	2ryy	16g\LL	-ne	2ryy	2ryy	2ryy
.	.	.	.	.	.	.	.	16a\J	.	.	.	.
8E\L	X 6_	.	8b-X\L	8cc\L	.	.	.	8b-\J	.	.	.	.
8E\	.	.	8b-\	8cc\	.	.	.	16r	.	.	.	.
.	.	.	.	.	.	.	.	16c\LL	Do-	.	.	.
8E\J	X 5	.	8b-\J	8cc\J	.	.	.	16a\	.	.	.	.
.	.	.	.	.	.	.	.	16b-\JJ	.	.	.	.
!	!	!	!LO:LB:g=original	!	!	!	!	!	!	!	!	!
=69	=69	=69	=69	=69	=69	=69	=69	=69	=69	=69	=69	=69
4F\	.	.	4a/	4cc\	.	2ryy	2ryy	8.a\L	-mi-	2ryy	2ryy	2ryy
.	.	.	.	.	.	.	.	32b-\LL	.	.	.	.
.	.	.	.	.	.	.	.	32cc\JJJ	.	.	.	.
8E\L	.	.	8g/L	8cc\L	.	.	.	8b-\L	.	.	.	.
8F\J	.	.	8a/J	8cc\J	.	.	.	8a\J	.	.	.	.
!LO:LB:g=original	!	!	!	!	!	!	!	!	!	!	!	!
=70	=70	=70	=70	=70	=70	=70	=70	=70	=70	=70	=70	=70
!LO:TX:a:t=P:problem:mixed beam	!	!	!	!	!	!	!	!	!	!	!	!
8C/L	.	.	4e/	4cc\	.	2ryy	2ryy	4g\	-ni	2ryy	2ryy	2ryy
16c\L	X 4	.	.	.	.	.	.	.	.	.	.	.
16B-\JJ	X 3	.	.	.	.	.	.	.	.	.	.	.
8A\L	.	.	4r	4r	.	.	.	4r	.	.	.	.
8G\J	.	.	.	.	.	.	.	.	.	.	.	.
=71	=71	=71	=71	=71	=71	=71	=71	=71	=71	=71	=71	=71
8F\L	X 6	.	4c/	4cc\	.	2ryy	2ryy	4c\	Be-	2ryy	2ryy	2ryy
8A\	.	.	.	.	.	.	.	.	.	.	.	.
8B-\	.	.	16d/LL	(>16dd\LL	.	.	.	16d\LL	-ne-	.	.	.
.	.	.	16e/	16ee\	.	.	.	16e\	.	.	.	.
8G\J	.	.	16f/	16ff\	.	.	.	16f\	.	.	.	.
.	.	.	16g/JJ	16gg\JJ)	.	.	.	16g\JJ	.	.	.	.
!	!	!	!	!LO:LB:g=original	!	!	!	!	!	!	!	!
=72	=72	=72	=72	=72	=72	=72	=72	=72	=72	=72	=72	=72
!LO:TX:a:t=P:problem:mixed beam	!	!	!	!	!	!	!	!	!	!	!	!
8C/L	.	.	(<16f/LL	(>16ff\LL	.	2ryy	2ryy	16f\LL	-di-	2ryy	2ryy	2ryy
.	.	.	16e/JJ)	16ee\JJ)	.	.	.	16e\JJ	.	.	.	.
8c\	.	.	4e/	4ee\	.	.	.	4e\	-ctus	.	.	.
8c\	.	.	.	.	.	.	.	.	.	.	.	.
8B-\J	.	.	8d/	8dd\	.	.	.	8d\	qui-	.	.	.
=73	=73	=73	=73	=73	=73	=73	=73	=73	=73	=73	=73	=73
8A\L	X 6	.	16c/LL	(>16cc\LL	.	2ryy	2ryy	16c\LL	-ve-	2ryy	2ryy	2ryy
.	.	.	16a/	16aa\	.	.	.	16a\	.	.	.	.
8F\	.	.	16e/	16ee\)	.	.	.	16e\	.	.	.	.
.	.	.	16f/JJ	16ff\JJ	.	.	.	16f\JJ	.	.	.	.
.	.	.	.	8qqccc/	.	.	.	.	.	.	.	.
8G\	X 6_	.	4b-\	4bb-T>\	.	.	.	4b-\	-nit	.	.	.
8C\J	.	.	.	.	.	.	.	.	.	.	.	.
!	!	!	!	!	!	!	!	!LO:LB:g=original	!	!	!	!
=74	=74	=74	=74	=74	=74	=74	=74	=74	=74	=74	=74	=74
8F\L	x	.	16a\LL	16aa\LL	.	2ryy	2ryy	16a\LL	in	2ryy	2ryy	2ryy
.	.	.	16b-\J	16bb-\J	.	.	.	16b-\JJ	.	.	.	.
16F\L	.	.	8cc\J	8ccc\J	.	.	.	8cc\	.	.	.	.
16G\JJ	.	.	.	.	.	.	.	.	.	.	.	.
8A\L	X 6	.	8r	8r	.	.	.	8r	.	.	.	.
8B-\J	.	.	8d/	8dd\	.	.	.	8d\	No-	.	.	.
=75	=75	=75	=75	=75	=75	=75	=75	=75	=75	=75	=75	=75
8A\L	X 6	.	16c/LL	(>16cc\LL	.	2ryy	2ryy	16c\LL	-mi-	2ryy	2ryy	2ryy
.	.	.	16a/	16aa\	.	.	.	16a\	.	.	.	.
8F\	.	.	16e/	16ee\)	.	.	.	16e\	-ne	.	.	.
.	.	.	16f/JJ	16ff\JJ	.	.	.	16f\JJ	.	.	.	.
.	.	.	.	8qqccc/	.	.	.	.	.	.	.	.
8G\	X 7_	.	4b-\	4bb-T>\	.	.	.	4b-\	.	.	.	.
8C\J	.	.	.	.	.	.	.	.	.	.	.	.
=76	=76	=76	=76	=76	=76	=76	=76	=76	=76	=76	=76	=76
!LO:TX:a:t=P:problem:mixed beam	!	!	!	!	!	!	!	!	!	!	!	!
8FF/L	x	.	16cc\LL	16aa\LL	.	2ryy	2ryy	16a\LL	in	2ryy	2ryy	2ryy
.	.	.	16b-\J	16gg\J	.	.	.	16g\JJ	.	.	.	.
8F\	.	.	8a\J	8ff\J	.	.	.	8f\	.	.	.	.
8FF/J	.	.	8a\	8ff\	.	.	.	8r	.	.	.	.
8r	.	.	8r	8r	.	.	.	8a\	Nomi-	.	.	.
=77	=77	=77	=77	=77	=77	=77	=77	=77	=77	=77	=77	=77
8r	.	.	8r	8.gg\L	.	2ryy	2ryy	8.g\L	.	2ryy	2ryy	2ryy
8BB-/L	X 6	.	8dd\L	.	.	.	.	.	.	.	.	.
.	.	.	.	16aa\K	.	.	.	16a\Jk	.	.	.	.
8BB-/	.	.	8dd\	8gg\	.	.	.	8g\	.	.	.	.
8BBn/J	.	.	8dd\J	8ff\J	.	.	.	8f\	-ne	.	.	.
=78	=78	=78	=78	=78	=78	=78	=78	=78	=78	=78	=78	=78
8r	.	.	8r	8r	.	2ryy	2ryy	16e\LL	in	2ryy	2ryy	2ryy
.	.	.	.	.	.	.	.	16f\J	.	.	.	.
8C/L	.	.	8ee\L	8gg\L	.	.	.	8g\J	.	.	.	.
8C/	.	.	8ee\	8gg\	.	.	.	16r	.	.	.	.
.	.	.	.	.	.	.	.	16e\LL	No-	.	.	.
8C/J	.	.	8ee\J	8gg\J	.	.	.	16f\	.	.	.	.
.	.	.	.	.	.	.	.	16g\JJ	.	.	.	.
=79	=79	=79	=79	=79	=79	=79	=79	=79	=79	=79	=79	=79
8r	.	.	8r	8r	.	2ryy	2ryy	16f\LL	-mi-	2ryy	2ryy	2ryy
.	.	.	.	.	.	.	.	16g\J	.	.	.	.
8C/L	.	.	8ff\L	8aa\L	.	.	.	8a\J	.	.	.	.
8C/	6 4	.	8ff\	8aa\	.	.	.	16r	.	.	.	.
.	.	.	.	.	.	.	.	16f\LL	-ne	.	.	.
8C/J	.	.	8ff\J	8aa\J	.	.	.	16g\	.	.	.	.
.	.	.	.	.	.	.	.	16a\JJ	.	.	.	.
=80	=80	=80	=80	=80	=80	=80	=80	=80	=80	=80	=80	=80
8r	.	.	8r	8r	.	2ryy	2ryy	16g\LL	Do-	2ryy	2ryy	2ryy
.	.	.	.	.	.	.	.	16a\J	.	.	.	.
8C/L	-7 5	.	8gg\L	8bb-\L	.	.	.	8b-\J	.	.	.	.
8C/	.	.	8gg\	8bb-\	.	.	.	16r	.	.	.	.
.	.	.	.	.	.	.	.	16g\LL	.	.	.	.
8C/J	.	.	8gg\J	8bb-\J	.	.	.	16a\	.	.	.	.
.	.	.	.	.	.	.	.	16b-\JJ	.	.	.	.
!	!	!	!	!	!	!	!	!LO:LB:g=original	!	!	!	!
!	!	!	!	!LO:LB:g=original	!	!	!	!	!	!	!	!
=81	=81	=81	=81	=81	=81	=81	=81	=81	=81	=81	=81	=81
8F\L	.	.	8cc\L	8aa\L	.	2ryy	2ryy	8.a\L	-mi-	2ryy	2ryy	2ryy
8F\J	.	.	8cc\J	8aa\J	.	.	.	.	.	.	.	.
.	.	.	.	.	.	.	.	32g\LL	.	.	.	.
.	.	.	.	.	.	.	.	32a\JJJ	.	.	.	.
8r	.	.	8r	8r	.	.	.	16cc\LL	-ne	.	.	.
.	.	.	.	.	.	.	.	16b-\	.	.	.	.
8E\	X 6	.	8cc\	8gg\	.	.	.	16a\	.	.	.	.
.	.	.	.	.	.	.	.	16g\JJ	.	.	.	.
!LO:LB:g=original	!	!	!	!	!	!	!	!	!	!	!	!
=82	=82	=82	=82	=82	=82	=82	=82	=82	=82	=82	=82	=82
8D\L	.	.	8a/L	8ff\L	.	2ryy	2ryy	8.f\L	Be-	2ryy	2ryy	2ryy
8D\J	.	.	8a/J	8ff\J	.	.	.	.	.	.	.	.
.	.	.	.	.	.	.	.	32e\LL	.	.	.	.
.	.	.	.	.	.	.	.	32f\JJJ	.	.	.	.
8r	.	.	8r	8r	.	.	.	16a\LL	-ne-	.	.	.
.	.	.	.	.	.	.	.	16g\	.	.	.	.
8C\	X 6	.	8a/	8ee\	.	.	.	16f\	.	.	.	.
.	.	.	.	.	.	.	.	16e\JJ	.	.	.	.
!	!	!	!LO:LB:g=original	!	!	!	!	!	!	!	!	!
=83	=83	=83	=83	=83	=83	=83	=83	=83	=83	=83	=83	=83
8BB-/L	.	.	8g/L	8dd\L	.	2ryy	2ryy	8d\	-di-	2ryy	2ryy	2ryy
8GG/	.	.	8dd/J	16bb-\L	.	.	.	16b-\	-ctus	.	.	.
.	.	.	.	16gg\JJ	.	.	.	16g\	.	.	.	.
8C/	5 3	.	4ee\	4ggT>\	.	.	.	8.g\L	qui	.	.	.
8C/J	.	.	.	.	.	.	.	.	.	.	.	.
.	.	.	.	.	.	.	.	16g\Jk	ve-	.	.	.
=84	=84	=84	=84	=84	=84	=84	=84	=84	=84	=84	=84	=84
!LO:TX:a:t=P:problem:mixed beam	!	!	!	!	!	!	!	!	!	!	!	!
8F\L	.	.	4a/	4ff\	.	2ryy	2ryy	4f\	-nit	2ryy	2ryy	2ryy
8C\	.	.	.	.	.	.	.	.	.	.	.	.
8FF/	.	.	8r	8r	.	.	.	4r	.	.	.	.
.	X 6	.	.	.	.	.	.	.	.	.	.	.
8AA/J	.	.	8c/	8cc\	.	.	.	.	.	.	.	.
=85	=85	=85	=85	=85	=85	=85	=85	=85	=85	=85	=85	=85
!	!	!	!	!	!	!	!	!LO:TX:a:t=1	!	!	!	!
8BB-/L	X 6	.	(<16d/LL	(>16dd\LL	.	2ryy	2ryy	2r	.	2ryy	2ryy	2ryy
.	.	.	16e/	16ee\	.	.	.	.	.	.	.	.
8GG/	.	.	16f/	16ff\	.	.	.	.	.	.	.	.
.	.	.	16g/JJ)	16gg\JJ)	.	.	.	.	.	.	.	.
8C/	.	.	(<16f/LL	(>16ff\LL	.	.	.	.	.	.	.	.
.	.	.	16e/	16ee\	.	.	.	.	.	.	.	.
8BB-/J	4 2	.	16d/	16dd\	.	.	.	.	.	.	.	.
.	.	.	16c/JJ)	16cc\JJ)	.	.	.	.	.	.	.	.
=86	=86	=86	=86	=86	=86	=86	=86	=86	=86	=86	=86	=86
8AA/L	X 6	.	(<16f/LL	16ff\LL	.	2ryy	2ryy	4r	.	2ryy	2ryy	2ryy
.	.	.	16a/JJ)	16aa\JJ	.	.	.	.	.	.	.	.
16AA/L	.	.	4cc\	4ccc\	.	.	.	.	.	.	.	.
16GG/JJ	.	.	.	.	.	.	.	.	.	.	.	.
16AA/LL	.	.	.	.	.	.	.	8r	.	.	.	.
16FF/	X 6	.	.	.	.	.	.	.	.	.	.	.
16GG/	.	.	8c/	8cc\	.	.	.	8c\	in	.	.	.
16AA/JJ	.	.	.	.	.	.	.	.	.	.	.	.
=87	=87	=87	=87	=87	=87	=87	=87	=87	=87	=87	=87	=87
8BB-/L	.	.	(<16d/LL	(>16dd\LL	.	2ryy	2ryy	16d\LL	No-	2ryy	2ryy	2ryy
.	.	.	16e/	16ee\	.	.	.	16e\	.	.	.	.
8GG/	.	.	16f/	16ff\	.	.	.	16f\	.	.	.	.
.	.	.	16g/JJ)	16gg\JJ)	.	.	.	16g\JJ	.	.	.	.
8C/	.	.	(<16f/LL	(>16ff\LL	.	.	.	16f\LL	-mine	.	.	.
.	.	.	16e/	16ee\	.	.	.	16e\	.	.	.	.
8BB-/J	.	.	16d/	16dd\	.	.	.	16d\	.	.	.	.
.	.	.	16c/JJ)	16cc\JJ)	.	.	.	16c\JJ	.	.	.	.
=88	=88	=88	=88	=88	=88	=88	=88	=88	=88	=88	=88	=88
8AA/L	.	.	16f/LL	16ff\LL	.	2ryy	2ryy	16f\LL	Do-	2ryy	2ryy	2ryy
.	.	.	16a/JJ	16aa\JJ|	.	.	.	16a\JJ	.	.	.	.
16AA/L	.	.	4cc\	4ccc\	.	.	.	4cc\	-mi-	.	.	.
16GG/JJ	.	.	.	.	.	.	.	.	.	.	.	.
8AA/L	.	.	.	.	.	.	.	.	.	.	.	.
8BB-/J	.	.	8dd\	8ddd\	.	.	.	8dd\	.	.	.	.
!	!	!	!	!	!	!	!	!LO:LB:g=original	!	!	!	!
!	!	!	!	!LO:LB:g=original	!	!	!	!	!	!	!	!
=89	=89	=89	=89	=89	=89	=89	=89	=89	=89	=89	=89	=89
8AA/L	X 6	.	(>16cc\LL	(>16ccc\LL	.	2ryy	2ryy	16cc\LL	.	2ryy	2ryy	2ryy
.	.	.	16a\	16aa\)	.	.	.	16a\	.	.	.	.
8BB-/	X 6	.	16b-\	(>16bb-\	.	.	.	16b-\	.	.	.	.
.	.	.	16g\JJ)	16gg\JJ)	.	.	.	16g\JJ	.	.	.	.
8C/	X 4	.	(>16a\LL	(>16aa\LL	.	.	.	16a\LL	.	.	.	.
.	.	.	16f\	16ff\)	.	.	.	16f\	.	.	.	.
8C/J	X 3	.	16g\	(>16gg\	.	.	.	16g\	.	.	.	.
.	.	.	16e\JJ)	16ee\JJ)	.	.	.	16e\JJ	.	.	.	.
=90	=90	=90	=90	=90	=90	=90	=90	=90	=90	=90	=90	=90
!	!	!	!	!	!LO:HP:b:t=for.	!	!	!	!	!	!	!
!	!	!	!	!	!LO:DY:b:rj	!	!	!	!	!	!	!
8F\L	.	.	4c/	4cc\	f	2ryy	2ryy	4f\	-ni.	2ryy	2ryy	2ryy
8A\	X 6	.	.	.	.	.	.	.	.	.	.	.
8B-\	.	.	(<16d/LL	(>16dd\LL	.	.	.	4r	.	.	.	.
.	.	.	16e/	16ee\	.	.	.	.	.	.	.	.
8G\J	.	.	16f/	16ff\	.	.	.	.	.	.	.	.
.	.	.	16g/JJ)	16gg\JJ)	.	.	.	.	.	.	.	.
=91	=91	=91	=91	=91	=91	=91	=91	=91	=91	=91	=91	=91
!LO:TX:a:t=P:problem:mixed beam	!	!	!	!	!	!	!	!LO:TX:a:t=19.	!	!	!	!
!	!	!	!	!	!	!	!	!LO:N:vis=00	!	!	!	!
8c\L	.	.	(<16f/LL	(>16ff\LL	.	2ryy	2ryy	0r	.	2ryy	2ryy	2ryy
.	.	.	16e/JJ)	16ee\JJ)	.	.	.	.	.	.	.	.
8C/	.	.	4e/	4ee\	.	.	.	.	.	.	.	.
8c\	.	.	.	.	.	.	.	.	.	.	.	.
8B-\J	.	.	8d/	8dd\	.	.	.	.	.	.	.	.
=92	=92	=92	=92	=92	=92	=92	=92	=92	=92	=92	=92	=92
8A\L	X 6	.	16c/LL	(>16cc\LL	.	2ryy	2ryy	.	.	2ryy	2ryy	2ryy
.	.	.	16a/	16aa\	.	.	.	.	.	.	.	.
8F\	.	.	16e/	16ee\	.	.	.	.	.	.	.	.
.	.	.	16f/JJ	16ff\JJ)	.	.	.	.	.	.	.	.
.	.	.	8qqc/	8qqcc/	.	.	.	.	.	.	.	.
8G\	X 7_	.	4B-/	4b-\	.	.	.	.	.	.	.	.
8C\J	.	.	.	.	.	.	.	.	.	.	.	.
!LO:PB:g=original	!	!	!	!	!	!	!	!	!	!	!	!
=93	=93	=93	=93	=93	=93	=93	=93	=93	=93	=93	=93	=93
8E\L	x	.	16A/LL	(>16a\LL	.	2ryy	2ryy	.	.	2ryy	2ryy	2ryy
.	.	.	16B-/JJ	16b-\JJ)	.	.	.	.	.	.	.	.
16F\L	.	.	4c/	4cc\	.	.	.	.	.	.	.	.
16G\JJ	.	.	.	.	.	.	.	.	.	.	.	.
8A\L	X 6	.	.	.	.	.	.	.	.	.	.	.
8B-\J	.	.	8d/	8dd\	.	.	.	.	.	.	.	.
!	!	!	!LO:LB:g=original	!	!	!	!	!	!	!	!	!
=94	=94	=94	=94	=94	=94	=94	=94	=94	=94	=94	=94	=94
8A\L	X 6	.	16c/LL	(>16cc\LL	.	2ryy	2ryy	.	.	2ryy	2ryy	2ryy
.	.	.	16a/	16aa\	.	.	.	.	.	.	.	.
8F\	.	.	16e/	16ee\	.	.	.	.	.	.	.	.
.	.	.	16f/JJ	16ff\JJ)	.	.	.	.	.	.	.	.
.	.	.	.	8qqcc/	.	.	.	.	.	.	.	.
8G\	X 7_	.	4B-/	4b-\	.	.	.	.	.	.	.	.
8C\J	.	.	.	.	.	.	.	.	.	.	.	.
=95	=95	=95	=95	=95	=95	=95	=95	=95	=95	=95	=95	=95
!LO:TX:a:t=P:problem:mixed beam	!	!	!	!	!	!	!	!	!	!	!	!
!	!	!	!	!	!	!	!	!LO:N:vis=00	!	!	!	!
8FF/L	x	.	16A/LL	16a/LL	.	2ryy	2ryy	0r	.	2ryy	2ryy	2ryy
.	.	.	16G/J	16g/J	.	.	.	.	.	.	.	.
8F\	.	.	8A/J	8f/J	.	.	.	.	.	.	.	.
8FF/J	.	.	8r	8r	.	.	.	.	.	.	.	.
8r	.	.	16a\LL	16aa\LL	.	.	.	.	.	.	.	.
.	.	.	16bn\JJ	16bbn\JJ	.	.	.	.	.	.	.	.
=96	=96	=96	=96	=96	=96	=96	=96	=96	=96	=96	=96	=96
8r	.	.	16cc/LL	16ccc\LL	.	2ryy	2ryy	.	.	2ryy	2ryy	2ryy
.	.	.	16g/J	16gg\J	.	.	.	.	.	.	.	.
8E\L	X 6	.	8g/J	8gg\J	.	.	.	.	.	.	.	.
!	!	!	!	!LO:LB:g=original	!	!	!	!	!	!	!	!
8E\	.	.	16r	16r	.	.	.	.	.	.	.	.
.	X 6|	.	16g/LL	(>16gg\LL	.	.	.	.	.	.	.	.
8D\J	.	.	16a/	16aa\	.	.	.	.	.	.	.	.
.	.	.	16f/JJ	16ff\JJ)	.	.	.	.	.	.	.	.
=97	=97	=97	=97	=97	=97	=97	=97	=97	=97	=97	=97	=97
8r	.	.	16f/LL	(>16ff\LL	.	2ryy	2ryy	.	.	2ryy	2ryy	2ryy
.	.	.	16e/J	16ee\J)	.	.	.	.	.	.	.	.
8C\L	.	.	8e/J	8ee\J	.	.	.	.	.	.	.	.
8C\	.	.	16r	16r	.	.	.	.	.	.	.	.
.	.	.	16e/LL	(>16ee\LL	.	.	.	.	.	.	.	.
8F\J	X 6	.	16d/	16dd\	.	.	.	.	.	.	.	.
.	.	.	16Bn/JJ	16bn\JJ)	.	.	.	.	.	.	.	.
=98	=98	=98	=98	=98	=98	=98	=98	=98	=98	=98	=98	=98
!LO:TX:a:t=P:problem:mixed beam	!	!	!	!	!	!	!	!	!	!	!	!
8E\L	.	.	16c/LL	(>16cc\LL	.	2ryy	2ryy	.	.	2ryy	2ryy	2ryy
.	.	.	16G/	16g\	.	.	.	.	.	.	.	.
8F\	.	.	16A/	16a\	.	.	.	.	.	.	.	.
.	.	.	16f/JJ	16ff\JJ)	.	.	.	.	.	.	.	.
8G\	X 4	.	8e/L	8ee\L	.	.	.	.	.	.	.	.
.	X 3	.	.	.	.	.	.	.	.	.	.	.
8GG/J	.	.	8d/J	8dd\J	.	.	.	.	.	.	.	.
=99	=99	=99	=99	=99	=99	=99	=99	=99	=99	=99	=99	=99
.	.	.	.	8qqdd/	.	.	.	.	.	.	.	.
!	!	!	!	!	!	!	!	!LO:N:vis=00	!	!	!	!
8C/L	.	.	4c/	4cc\	.	2ryy	2ryy	0r	.	2ryy	2ryy	2ryy
8CC/J	.	.	.	.	.	.	.	.	.	.	.	.
8r	.	.	(>16cc\LL	(>16ccc\LL	.	.	.	.	.	.	.	.
.	.	.	16b-X\	16bb-X\)	.	.	.	.	.	.	.	.
!LO:TX:a:t=P:problem:niejednoznaczny zapis w bc. Przyjęto "6"	!	!	!	!	!	!	!	!	!	!	!	!
8C/	X 6	.	16a\	(>16aa\	.	.	.	.	.	.	.	.
.	.	.	16g\JJ)	16gg\JJ)	.	.	.	.	.	.	.	.
=100	=100	=100	=100	=100	=100	=100	=100	=100	=100	=100	=100	=100
8D/L	X #	.	16f#X/LL	(>16ff#X\LL	.	2ryy	2ryy	.	.	2ryy	2ryy	2ryy
.	X -	.	16a/	16aa\	.	.	.	.	.	.	.	.
8GG/J	.	.	16g/	16gg\	.	.	.	.	.	.	.	.
.	.	.	16a/JJ	16aa\JJ)	.	.	.	.	.	.	.	.
8r	.	.	16b-X/LL	(>16bb-\LL	.	.	.	.	.	.	.	.
.	.	.	16a/	16aa\	.	.	.	.	.	.	.	.
8BB-X/	X 6	.	16g/	16gg\	.	.	.	.	.	.	.	.
.	.	.	16f#/JJ	16ff#\JJ)	.	.	.	.	.	.	.	.
=101	=101	=101	=101	=101	=101	=101	=101	=101	=101	=101	=101	=101
8C/L	.	.	16e/LL	(>16ee\LL	.	2ryy	2ryy	.	.	2ryy	2ryy	2ryy
.	.	.	16g/	16gg\	.	.	.	.	.	.	.	.
8FF/J	.	.	16f/	16ff\	.	.	.	.	.	.	.	.
.	.	.	16g/JJ	16gg\JJ)	.	.	.	.	.	.	.	.
8r	.	.	16a/LL	16aa\LL	.	.	.	.	.	.	.	.
.	.	.	16e/	16ee\	.	.	.	.	.	.	.	.
8AA/	X 6	.	16f/	16ff\	.	.	.	.	.	.	.	.
.	.	.	16c/JJ	16cc\JJ	.	.	.	.	.	.	.	.
=102	=102	=102	=102	=102	=102	=102	=102	=102	=102	=102	=102	=102
4BB-/	.	.	16c#X/LL	16cc#X\LL	.	2ryy	2ryy	.	.	2ryy	2ryy	2ryy
.	.	.	16d/	16dd\	.	.	.	.	.	.	.	.
.	.	.	16f#X/	16ff#X\	.	.	.	.	.	.	.	.
.	.	.	16g/JJ	16gg\JJ	.	.	.	.	.	.	.	.
!	!	!	!	!LO:LB:g=original	!	!	!	!	!	!	!	!
8GG/L	.	.	16a/LL	16aa\LL	.	.	.	.	.	.	.	.
.	.	.	16b-/	16bb-\	.	.	.	.	.	.	.	.
8BB-/J	.	.	16d/	16dd\	.	.	.	.	.	.	.	.
.	.	.	16g/JJ	16gg\JJ	.	.	.	.	.	.	.	.
!LO:LB:g=original	!	!	!LO:LB:g=original	!	!	!	!	!	!	!	!	!
=103	=103	=103	=103	=103	=103	=103	=103	=103	=103	=103	=103	=103
.	.	.	.	8qqff/	.	.	.	.	.	.	.	.
!LO:TX:a:t=P:problem:mixed beam	!	!	!	!	!	!	!	!	!	!	!	!
!	!	!	!	!	!	!	!	!LO:N:vis=00	!	!	!	!
8C/L	.	.	4e/	4ee\	.	2ryy	2ryy	0r	.	2ryy	2ryy	2ryy
16c\L	.	.	.	.	.	.	.	.	.	.	.	.
16B-\JJ	.	.	.	.	.	.	.	.	.	.	.	.
8A\L	.	.	8r	8r	.	.	.	.	.	.	.	.
8F\J	.	.	8c/	8cc\	.	.	.	.	.	.	.	.
=104	=104	=104	=104	=104	=104	=104	=104	=104	=104	=104	=104	=104
8B-\L	.	.	(<16d/LL	(>16dd\LL	.	2ryy	2ryy	.	.	2ryy	2ryy	2ryy
.	.	.	16e/	16ee\	.	.	.	.	.	.	.	.
8G\	.	.	16f/	16ff\	.	.	.	.	.	.	.	.
.	.	.	16g/JJ)	16gg\JJ)	.	.	.	.	.	.	.	.
8c\	.	.	(<16f/LL	(>16ff\LL	.	.	.	.	.	.	.	.
.	.	.	16e/	16ee\	.	.	.	.	.	.	.	.
8B-\J	4 2	.	16d/	16dd\	.	.	.	.	.	.	.	.
.	.	.	16c/JJ)	16cc\JJ)	.	.	.	.	.	.	.	.
=105	=105	=105	=105	=105	=105	=105	=105	=105	=105	=105	=105	=105
8A\L	X 6	.	16f/LL	(>16ff\LL	.	2ryy	2ryy	.	.	2ryy	2ryy	2ryy
.	.	.	16a/JJ	16aa\JJ)	.	.	.	.	.	.	.	.
16A\L	X 3	.	4cc\	4ccc\	.	.	.	.	.	.	.	.
16G\JJ	X 3	.	.	.	.	.	.	.	.	.	.	.
16A\LL	X 3	.	.	.	.	.	.	.	.	.	.	.
16F\	X 3	.	.	.	.	.	.	.	.	.	.	.
16G\	X 3	.	8c/	8cc\	.	.	.	.	.	.	.	.
16A\JJ	X 3	.	.	.	.	.	.	.	.	.	.	.
=106	=106	=106	=106	=106	=106	=106	=106	=106	=106	=106	=106	=106
8B-\L	.	.	(<16d/LL	(>16dd\LL	.	2ryy	2ryy	.	.	2ryy	2ryy	2ryy
.	.	.	16e/	16ee\	.	.	.	.	.	.	.	.
8G\	.	.	16f/	16ff\	.	.	.	.	.	.	.	.
.	.	.	16g/JJ)	16gg\JJ)	.	.	.	.	.	.	.	.
8c\	.	.	(<16f/LL	(>16ff\LL	.	.	.	.	.	.	.	.
.	.	.	16e/	16ee\	.	.	.	.	.	.	.	.
8B-\J	4 2	.	16d/	16dd\	.	.	.	.	.	.	.	.
.	.	.	16c/JJ)	16cc\JJ)	.	.	.	.	.	.	.	.
=107	=107	=107	=107	=107	=107	=107	=107	=107	=107	=107	=107	=107
!	!	!	!	!	!	!	!	!LO:N:vis=0	!	!	!	!
8A\L	X 6	.	16f/LL	(>16ff\LL	.	2ryy	2ryy	1r	.	2ryy	2ryy	2ryy
.	.	.	16a/JJ	16aa\JJ)	.	.	.	.	.	.	.	.
16F\L	X 3_	.	4cc\	4ccc\	.	.	.	.	.	.	.	.
16G\JJ	.	.	.	.	.	.	.	.	.	.	.	.
8A\L	.	.	.	.	.	.	.	.	.	.	.	.
8B-\J	.	.	8dd\	8ddd\	.	.	.	.	.	.	.	.
=108	=108	=108	=108	=108	=108	=108	=108	=108	=108	=108	=108	=108
!LO:TX:a:t=P:problem:mixed beam	!	!	!	!	!	!	!	!	!	!	!	!
8A\L	x	.	(<16cc/LL	(>16ccc\LL	.	2ryy	2ryy	.	.	2ryy	2ryy	2ryy
.	.	.	16a/)	16aa\	.	.	.	.	.	.	.	.
8B-\	.	.	(<16b-/	16bb-\	.	.	.	.	.	.	.	.
.	.	.	16g/JJ)	16gg\JJ)	.	.	.	.	.	.	.	.
8c\	X 4	.	(<16a/LL	16aa\LL	.	.	.	.	.	.	.	.
.	X 3	.	16f/)	16ff\	.	.	.	.	.	.	.	.
8C/J	.	.	(<16g/	16gg\	.	.	.	.	.	.	.	.
.	.	.	16e/JJ)	16ee\JJ	.	.	.	.	.	.	.	.
=109	=109	=109	=109	=109	=109	=109	=109	=109	=109	=109	=109	=109
4F\	.	.	8f/L	8ff\L	.	2ryy	2ryy	2r	.	2ryy	2ryy	2ryy
.	.	.	8c/J	8cc\J	.	.	.	.	.	.	.	.
4r	.	.	4f/	4f/	.	.	.	.	.	.	.	.
==	==	==	==	==	==	==	==	==	==	==	==	==
*-	*-	*-	*-	*-	*-	*-	*-	*-	*-	*-	*-	*-
!!!system-decoration: s1,s2[(s3,s4,s5,s6)][(s7,s8)]s9
!!!RDF**kern: > = above
!!!RDF**kern: < = below
!!!EED: Mateusz Mrugas
!!!EST: 2020-11-24
!!!ENC: Anastazja Marusiak
!!!END: 2020-06-09
!!!RDF**kern: | = vertical stroke
